**kern	**kern
*part1	*part1
*staff2	*staff1
*I"Piano	*
*clefF4	*clefG2
*k[b-e-]	*k[b-e-]
=1	=1
*	*^
2CC] 2C]	4g	8B-L
.	.	8e-
.	4f#X	8A
.	.	8e-J
4CC#X 4C#X	4g	8B-L
.	.	8en
4EEn 4En	4g	8B-
.	.	8c#XJ
*	*v	*v
=	=
*^	*
8DL	2DD	2.gg
8B-	.	.
8d>	.	.
8gJ>	.	.
8DL	2D	.
8B-	.	.
8d>	.	4ff
8gJ>	.	.
=	=	=
8DL	2DD	4ee-
8A	.	.
8d>	.	4cc#X
8gJ>	.	.
8DL	2D	4dd
8A	.	.
8c	.	4f#X
8dJ>	.	.
*v	*v	*
=	=
8GGL 8G	4g
8B-	.
8dJ	4ryy
8g>	.
8b-L>	2rddyy
8dd>	.
8gg>	.
8bb-J>	.
=	=
2r	4ddd
.	4r
2AA 2A	8r
.	8cL
.	8c 8cc
.	8f#XJ
=:|!	=:|!
2r	4ddd
.	4r
4DD 4D	4A 4c 4f#X
4r	4r
=	=
2GGG 2GG	2B- 2d 2g
==	==
*-	*-
!!!system-decoration: {(s1,s2)}
!!!RDF**kern: > = above
